img/home.svg

<svg width="14" height="14" viewBox="0 0 14 14" fill="none" xmlns="http://www.w3.org/2000/svg">
<path fill-rule="evenodd" clip-rule="evenodd" d="M6.64195 0.70621C6.8526 0.542373 7.14757 0.542373 7.35821 0.70621L12.6082 4.78954C12.7503 4.90006 12.8334 5.06999 12.8334 5.25V11.6667C12.8334 12.1308 12.649 12.5759 12.3209 12.9041C11.9927 13.2323 11.5475 13.4167 11.0834 13.4167H2.91675C2.45262 13.4167 2.0075 13.2323 1.67931 12.9041C1.35112 12.5759 1.16675 12.1308 1.16675 11.6667V5.25C1.16675 5.06999 1.24986 4.90006 1.39195 4.78954L6.64195 0.70621ZM2.33341 5.5353V11.6667C2.33341 11.8214 2.39487 11.9697 2.50427 12.0791C2.61367 12.1885 2.76204 12.25 2.91675 12.25H11.0834C11.2381 12.25 11.3865 12.1885 11.4959 12.0791C11.6053 11.9697 11.6667 11.8214 11.6667 11.6667V5.5353L7.00008 1.90567L2.33341 5.5353Z" fill="white"/>
<path fill-rule="evenodd" clip-rule="evenodd" d="M4.66675 7C4.66675 6.67783 4.92792 6.41667 5.25008 6.41667H8.75008C9.07225 6.41667 9.33342 6.67783 9.33342 7V12.8333C9.33342 13.1555 9.07225 13.4167 8.75008 13.4167C8.42792 13.4167 8.16675 13.1555 8.16675 12.8333V7.58333H5.83342V12.8333C5.83342 13.1555 5.57225 13.4167 5.25008 13.4167C4.92792 13.4167 4.66675 13.1555 4.66675 12.8333V7Z" fill="white"/>
</svg>

<svg width="14" height="14" fill="none" xmlns="http://www.w3.org/2000/svg"><path fill-rule="evenodd" clip-rule="evenodd" d="M6.642.706a.583.583 0 01.716 0l5.25 4.084c.142.11.225.28.225.46v6.417a1.75 1.75 0 01-1.75 1.75H2.917a1.75 1.75 0 01-1.75-1.75V5.25c0-.18.083-.35.225-.46L6.642.706zm-4.309 4.83v6.13a.583.583 0 00.584.584h8.166a.583.583 0 00.584-.583V5.535L7 1.905l-4.667 3.63z" fill="#fff"/><path fill-rule="evenodd" clip-rule="evenodd" d="M4.667 7c0-.322.26-.583.583-.583h3.5c.322 0 .583.26.583.583v5.833a.583.583 0 11-1.166 0v-5.25H5.833v5.25a.583.583 0 11-1.166 0V7z" fill="#fff"/></svg>
